!! 00000] TT[WS
!!!OTL: Qianhenxian guazhu zoubu kai
!!!ARE: Asia, China, Shanxi Hequ
!! Ethnic Group: Han
!! WII, 27 (1)
!!!SCT: J0435
!!!YEM: Copyright 1995, estate of Helmut Schaffrath.
**kern
*ICvox
*Ivox
*M2/4
*k[b-]
*F:
{8.cc
16ff
8cc
8cc
=1
8a
4c
8f
=2
8.cc
16ff
8cc
8a
=3
2g}
=4
{8.cc
16ff
8cc
8cc
=5
8a
4c
8f
=6
8.g
16cc
8a
8d
=7
2c}
==
!!!AGN: Shange, Shanqu. Qingge
!!!ONB: ESAC (Essen Associative Code) Database: CHINA
!!!AMT: simple duple
!!!AIN: vox
!!!EED: Helmut Schaffrath
!!!EEV: 1.0
*-
